resources/svg/regular/poll.svg

<svg xmlns="http://www.w3.org/2000/svg" fill="currentColor" stroke="none" viewBox="0 0 24 24"><path d="M7 11h7v2H7zm0-4h10.97v2H7zm0 8h13v2H7zM4 4h2v16H4z"/></svg>

<svg xmlns="http://www.w3.org/2000/svg" fill="currentColor" stroke="none" viewBox="0 0 24 24"><path d="M7 11H14V13H7zM7 7H17.97V9H7zM7 15H20V17H7zM4 4H6V20H4z"/></svg>
